X: 111102
Q: "Reel."
M: C
L: 1/8
K: G
|: uD |\
ceAc BdGB | AcFA G2-G ::\
d |\
gbeg fadf | egce d2(cB) |
ceAc BdGB | AcDF G2-Gd |\
gbeg fadf | egce d2(cB) |\
ceAc BdGB | AcDF G2-G |]


